X:8
T:Für Elise (Opening)
M:3/8
L:1/16
Q:3/8=120
K:Am
e^d|e^d eB dc|A3 CEA|B3 EG#B|c3 e^d e|
^d e B d c|A3 C E A|B3 E G# B|c3||

